gama.ui.shared/icons_svg/light/overlays/small.unselectable.svg

<svg height="16" viewBox="-712 -3508.142 16 16" width="16" xmlns="http://www.w3.org/2000/svg"><g fill="none"><path d="m-708.2857-3498.4274h-1.7143v4.2857h4.2857v-1.7143h-2.5714zm-1.7143-3.4286h1.7143v-2.5714h2.5714v-1.7143h-4.2857zm10.2857 6h-2.5714v1.7143h4.2857v-4.2857h-1.7143zm-2.5714-10.2857v1.7143h2.5714v2.5714h1.7143v-4.2857z" fill="#fff"/><path d="m-708.2857-3498.4274h-1.7143v4.2857h4.2857v-1.7143h-2.5714zm-1.7143-3.4286h1.7143v-2.5714h2.5714v-1.7143h-4.2857zm10.2857 6h-2.5714v1.7143h4.2857v-4.2857h-1.7143zm-2.5714-10.2857v1.7143h2.5714v2.5714h1.7143v-4.2857z" stroke="#000" stroke-linecap="round" stroke-linejoin="round" stroke-width=".5"/><path d="m-699.0934-3506.549 1.5005 1.5007-11.3137 11.3137-1.5005-1.5004z" fill="#fff"/><path d="m-699.0934-3506.549 1.5005 1.5007-11.3137 11.3137-1.5005-1.5004z" stroke="#000" stroke-linecap="round" stroke-linejoin="round" stroke-width=".5"/></g></svg>

<?xml version="1.0" encoding="UTF-8" standalone="no"?>
<!DOCTYPE svg PUBLIC "-//W3C//DTD SVG 1.1//EN" "http://www.w3.org/Graphics/SVG/1.1/DTD/svg11.dtd">
<svg version="1.1" xmlns="http://www.w3.org/2000/svg" xmlns:xl="http://www.w3.org/1999/xlink" xmlns:dc="http://purl.org/dc/elements/1.1/" viewBox="-712 -3508.1417 16.000008 16.000008" width="16.000008" height="16.000008">
  <defs/>
  <g id="SOURCES" stroke-dasharray="none" fill="none" stroke="none" fill-opacity="1" stroke-opacity="1">
    <title>SOURCES</title>
    <g id="SOURCES_Calque_2">
      <title>Calque 2</title>
      <g id="Group_9513">
        <g id="Group_9509">
          <g id="Graphic_9511">
            <path d="M -708.2857 -3498.4274 L -710 -3498.4274 L -710 -3494.1417 L -705.7143 -3494.1417 L -705.7143 -3495.856 L -708.2857 -3495.856 L -708.2857 -3498.4274 Z M -710 -3501.856 L -708.2857 -3501.856 L -708.2857 -3504.4274 L -705.7143 -3504.4274 L -705.7143 -3506.1417 L -710 -3506.1417 L -710 -3501.856 Z M -699.7143 -3495.856 L -702.2857 -3495.856 L -702.2857 -3494.1417 L -698 -3494.1417 L -698 -3498.4274 L -699.7143 -3498.4274 L -699.7143 -3495.856 Z M -702.2857 -3506.1417 L -702.2857 -3504.4274 L -699.7143 -3504.4274 L -699.7143 -3501.856 L -698 -3501.856 L -698 -3506.1417 L -702.2857 -3506.1417 Z" fill="white"/>
            <path d="M -708.2857 -3498.4274 L -710 -3498.4274 L -710 -3494.1417 L -705.7143 -3494.1417 L -705.7143 -3495.856 L -708.2857 -3495.856 L -708.2857 -3498.4274 Z M -710 -3501.856 L -708.2857 -3501.856 L -708.2857 -3504.4274 L -705.7143 -3504.4274 L -705.7143 -3506.1417 L -710 -3506.1417 L -710 -3501.856 Z M -699.7143 -3495.856 L -702.2857 -3495.856 L -702.2857 -3494.1417 L -698 -3494.1417 L -698 -3498.4274 L -699.7143 -3498.4274 L -699.7143 -3495.856 Z M -702.2857 -3506.1417 L -702.2857 -3504.4274 L -699.7143 -3504.4274 L -699.7143 -3501.856 L -698 -3501.856 L -698 -3506.1417 L -702.2857 -3506.1417 Z" stroke="black" stroke-linecap="round" stroke-linejoin="round" stroke-width=".5"/>
          </g>
          <g id="Graphic_9510"/>
        </g>
        <g id="Graphic_9512">
          <path d="M -699.0934 -3506.549 L -697.5929 -3505.0483 L -708.9066 -3493.7346 L -710.4071 -3495.235 Z" fill="white"/>
          <path d="M -699.0934 -3506.549 L -697.5929 -3505.0483 L -708.9066 -3493.7346 L -710.4071 -3495.235 Z" stroke="black" stroke-linecap="round" stroke-linejoin="round" stroke-width=".5"/>
        </g>
      </g>
    </g>
  </g>
</svg>
